X:415
T: HABT IHR LUST IHR LIEBEN BRUEDER
N: E1605
O: Europa, Mitteleuropa, Deutschland
R: Staende -, Handwerker -, Gesellen - Lied, Wanderschaft
M: 3/4
L: 1/8
K: G
BA | G2GDGA | B2G2
AB | c2B2AG | A4
BA | G2GDGA | B2G2
AB | c2B2AG | A4
cB | A2G2FG | A4
dc | B2B2AA | G4

@@@ Tune index: 5099
